X:1
T:Title
%%score 1 2
L:1/8
Q:1/4=90
M:3/4
K:F
V:1 treble nm="Grand Piano, Soprano"
V:2 bass nm="Choir Pad, All for Me"
V:1
 [FA][GB] [Ac]3 [FA] | [EG][EA] F4 | [FA][FA] [EG]3 [Ec] | [Ge][Fd] [Ec]4 | [FA][GB] [Ac]3 [Af] | %5
w: By~D.~Hayden~Lloyd * * *|||||
 [Ac][FA] [EG]4 | [EG][FA] [EB]3 [EG] | [Ec][EB] [FA]4 | [FA]>[EG] .[DF]4 | [B,D]>[B,E] [A,F]4- | %10
w: |||||
 [A,F]4 z2 |] %11
w: |
V:2
 [F,C][F,C] [F,F]3 [F,C] | [C,C][C,B,] [F,A,]4 | [F,C][F,C] [C,C]3 [C,C] | [G,C][G,=B,] [C,C]4 | %4
 [F,C][F,C] [F,F]3 [F,C] | [F,F][F,C] [C,C]4 | [C,C][C,C] [C,G,]3 [C,C] | [C,C][C,C] [F,C]4 | %8
 [F,C]>[C,B,] .[D,A,]4 | [B,,G,]>[C,G,] F,4- | F,4 z2 |] %11

